X:609
T: Xiangyang hua
N: C2126
O: China, Hubei
R: Shange, Chuan haozi]
M: 4/4
L: 1/16
K: C
d4A2c2d8 | d2e2d2c2A8 | d3ge8e2e2 | c2d4c2A8
A3dA2c2d6e2 | A4c4A8 | d3ge8e2e2 | c2d4c2A8
A6cAA2c2d2e2 | d3ed2c2A8
d3eA2c2d6e2 | A2c2A12
A3cd2e2d2c2A4 | A2d2c12
d3eA2c2d8 | A6c2d4e4
e2edc2e2d2e2d2c2 | A2A6e2edc2e2 | d2e2d2c2A2A6

